build/assets/fonts/bd7ccde1aba2b3502e43a20b0dad4152.svg

<svg width="100" height="60" viewBox="0 0 100 60" version="1.1" xmlns="http://www.w3.org/2000/svg" xmlns:xlink="http://www.w3.org/1999/xlink"><title>Ebay-dark</title><desc>Created with Sketch.</desc><g id="Dark-Payment-badges" stroke="none" stroke-width="1" fill="none" fill-rule="evenodd" transform="translate(-450.000000, -889.000000)"><g id="Ebay-dark" transform="translate(450.000000, 889.000000)"><rect id="Rectangle" fill="#000" x="0" y="0" width="100" height="60" rx="4"/><path d="M26.2915089,22.6530399 C21.7804201,22.6530399 18.0213327,24.58071 18.0213327,30.3964027 C18.0213327,35.0037116 20.5490468,37.905118 26.4079902,37.905118 C33.3042409,37.905118 33.7463155,33.3294945 33.7463155,33.3294945 L30.4047567,33.3294945 C30.4047567,33.3294945 29.6882985,35.7932919 26.2041478,35.7932919 C23.3664023,35.7932919 21.3253845,33.8624491 21.3253845,31.1560921 L34.0957596,31.1560921 L34.0957596,29.4578132 C34.0957596,26.7803753 32.408278,22.6530399 26.2915089,22.6530399 L26.2915089,22.6530399 Z M26.1750274,24.8235279 C28.8762673,24.8235279 30.7178003,26.4903313 30.7178003,28.9885183 L21.3992919,28.9885183 C21.3992919,26.3363873 23.8029617,24.8235279 26.1750274,24.8235279 L26.1750274,24.8235279 Z" id="e" fill="#E53238"/><path d="M34.0933892,17.0215032 L34.0933892,34.9845 C34.0933892,36.0041366 34.0211381,37.4358234 34.0211381,37.4358234 L37.2082812,37.4358234 C37.2082812,37.4358234 37.3226786,36.4075657 37.3226786,35.4678382 C37.3226786,35.4678382 38.8973331,37.9491143 43.1789355,37.9491143 C47.6876352,37.9491143 50.7502229,34.7962353 50.7502229,30.2790788 C50.7502229,26.0768334 47.9371371,22.6970362 43.1862144,22.6970362 C38.7373109,22.6970362 37.3548672,25.1168371 37.3548672,25.1168371 L37.3548672,17.0215032 L34.0933892,17.0215032 Z M42.3635648,24.9188533 C45.4253227,24.9188533 47.3722645,27.20764 47.3722645,30.2790788 C47.3722645,33.5726396 45.1236117,35.7272972 42.3854059,35.7272972 C39.117597,35.7272972 37.3548672,33.1573549 37.3548672,30.3084099 C37.3548672,27.6537482 38.9366163,24.9188533 42.3635648,24.9188533 L42.3635648,24.9188533 Z" id="b" fill="#0064D2"/><path d="M58.6709547,22.6530399 C51.8843627,22.6530399 51.4491115,26.3959174 51.4491115,26.994016 L54.8270699,26.994016 C54.8270699,26.994016 55.0042091,24.8088623 58.4379925,24.8088623 C60.6693205,24.8088623 62.3983595,25.8375622 62.3983595,27.8152817 L62.3983595,28.5192237 L58.4379925,28.5192237 C53.1803243,28.5192237 50.4007787,30.0684219 50.4007787,33.2121709 C50.4007787,36.3060714 52.9689899,37.9894444 56.4396096,37.9894444 C61.1695253,37.9894444 62.6932011,35.3569944 62.6932011,35.3569944 C62.6932011,36.4040389 62.7733461,37.4358234 62.7733461,37.4358234 L65.7763179,37.4358234 C65.7763179,37.4358234 65.6598357,36.1568943 65.6598357,35.3386625 L65.6598357,28.2662446 C65.6598357,23.628957 61.9462336,22.6530399 58.6709547,22.6530399 L58.6709547,22.6530399 Z M62.3983595,30.6310499 L62.3983595,31.5696393 C62.3983595,32.7938158 61.6483797,35.8372881 57.2331392,35.8372881 C54.8153685,35.8372881 53.7787392,34.6219158 53.7787392,33.2121709 C53.7787392,30.6475667 57.2696789,30.6310499 62.3983595,30.6310499 L62.3983595,30.6310499 Z" id="a" fill="#F5AF02"/><polygon id="y" fill="#86B817" points="63.8408555 23.2402495 67.6410603 23.2402495 73.0948821 34.2456294 78.5362261 23.2402495 81.9786667 23.2402495 72.0673515 42.833297 68.4564288 42.833297 71.3164629 37.3714678"/></g></g></svg>

<svg width="100" height="60" xmlns="http://www.w3.org/2000/svg"><g fill="none" fill-rule="evenodd"><rect fill="#000" width="100" height="60" rx="4"/><path d="M26.292 22.653c-4.512 0-8.27 1.928-8.27 7.743 0 4.608 2.527 7.51 8.386 7.51 6.896 0 7.338-4.577 7.338-4.577h-3.341s-.717 2.464-4.2 2.464c-2.839 0-4.88-1.93-4.88-4.637h12.77v-1.698c0-2.678-1.687-6.805-7.803-6.805zm-.117 2.17c2.701 0 4.543 1.667 4.543 4.166h-9.319c0-2.653 2.404-4.165 4.776-4.165z" fill="#E53238"/><path d="M34.093 17.022v17.962c0 1.02-.072 2.452-.072 2.452h3.187s.115-1.028.115-1.968c0 0 1.574 2.481 5.856 2.481 4.509 0 7.571-3.153 7.571-7.67 0-4.202-2.813-7.582-7.564-7.582-4.449 0-5.831 2.42-5.831 2.42v-8.095h-3.262zm8.27 7.897c3.062 0 5.01 2.289 5.01 5.36 0 3.294-2.25 5.448-4.988 5.448-3.267 0-5.03-2.57-5.03-5.419 0-2.654 1.582-5.39 5.009-5.39z" fill="#0064D2"/><path d="M58.671 22.653c-6.787 0-7.222 3.743-7.222 4.341h3.378s.177-2.185 3.611-2.185c2.231 0 3.96 1.029 3.96 3.006v.704h-3.96c-5.258 0-8.037 1.55-8.037 4.693 0 3.094 2.568 4.777 6.039 4.777 4.73 0 6.253-2.632 6.253-2.632 0 1.047.08 2.079.08 2.079h3.003s-.116-1.28-.116-2.097v-7.073c0-4.637-3.714-5.613-6.989-5.613zm3.727 7.978v.939c0 1.224-.75 4.267-5.165 4.267-2.418 0-3.454-1.215-3.454-2.625 0-2.564 3.49-2.581 8.62-2.581z" fill="#F5AF02"/><path fill="#86B817" d="M63.84 23.24h3.801l5.454 11.006 5.441-11.006h3.443l-9.912 19.593h-3.61l2.86-5.462z"/></g></svg>
